!! J.S. Bach; Fugue from 'Prelude & Fugue in D major', BWV 532 for organ
!! Encoded from Novello Edition, Book 6, pp.14-20; 4 voices.
!! NOTE:	Double-stops occur in bars 119-123.
!! Performed duration: 5:50, tempo: quarter-note equals MM 93.9
!! (Helmut Walcha, organist "The Works of Johann Sebastian Bach",
!! Archive/Deutsche Grammophon, APM 14505)
**kern	**kern	**kern	**kern
*M4/4	*M4/4	*M4/4	*M4/4
*MM94	*MM94	*MM94	*MM94
=1	=1	=1	=1
1r	16d	1r	1r
.	16e	.	.
.	16f#	.	.
.	16e	.	.
.	16d	.	.
.	16e	.	.
.	16f#	.	.
.	16e	.	.
.	16d	.	.
.	16e	.	.
.	16f#	.	.
.	16e	.	.
.	16d	.	.
.	16e	.	.
.	16f#	.	.
.	16e	.	.
=2	=2	=2	=2
1r	8d	1r	1r
.	8r	.	.
.	4r	.	.
.	4r	.	.
.	16b	.	.
.	16a	.	.
.	16b	.	.
.	16f#	.	.
=3	=3	=3	=3
1r	16g	1r	1r
.	16f#	.	.
.	16g	.	.
.	16e	.	.
.	16a	.	.
.	16g	.	.
.	16a	.	.
.	16e	.	.
.	16f#	.	.
.	16e	.	.
.	16f#	.	.
.	16d	.	.
.	16g	.	.
.	16f#	.	.
.	16g	.	.
.	16d	.	.
=4	=4	=4	=4
1r	16e	1r	1r
.	16d	.	.
.	16e	.	.
.	16c#	.	.
.	16f#	.	.
.	16e	.	.
.	16f#	.	.
.	16c#	.	.
.	16d	.	.
.	16c#	.	.
.	16d	.	.
.	16B	.	.
.	16e	.	.
.	16d	.	.
.	16e	.	.
.	16B	.	.
=5	=5	=5	=5
1r	16c#	1r	1r
.	16B	.	.
.	16c#	.	.
.	16A	.	.
.	[4d	.	.
.	16d]	.	.
.	16e	.	.
.	16d	.	.
.	16e	.	.
.	8.c#M	.	.
.	16d	.	.
=6	=6	=6	=6
1r	16d	2r	1r
.	16f#	.	.
.	16d	.	.
.	16A	.	.
.	16F#	.	.
.	16A	.	.
.	16F#	.	.
.	16D	.	.
.	8A	16a	.
.	.	16b	.
.	8r	16cc#	.
.	.	16b	.
.	4r	16a	.
.	.	16b	.
.	.	16cc#	.
.	.	16b	.
=7	=7	=7	=7
1r	2r	16a	1r
.	.	16b	.
.	.	16cc#	.
.	.	16b	.
.	.	16a	.
.	.	16b	.
.	.	16cc#	.
.	.	16b	.
.	8r	8a	.
.	16A	8r	.
.	16G#	.	.
.	16A	4r	.
.	16G#	.	.
.	16A	.	.
.	16G#	.	.
=8	=8	=8	=8
1r	8A	4r	1r
.	8AA	.	.
.	8r	16ff#	.
.	.	16ee	.
.	8a	16ff#	.
.	.	16cc#	.
.	4a	16dd	.
.	.	16cc#	.
.	.	16dd	.
.	.	16b	.
.	8r	16ee	.
.	.	16dd	.
.	8g#	16ee	.
.	.	16b	.
=9	=9	=9	=9
1r	4g#	16cc#	1r
.	.	16b	.
.	.	16cc#	.
.	.	16a	.
.	8r	16dd	.
.	.	16cc#	.
.	8f#	16dd	.
.	.	16a	.
.	4f#	16b	.
.	.	16a	.
.	.	16b	.
.	.	16g#	.
.	8r	16cc#	.
.	.	16b	.
.	8e	16cc#	.
.	.	16g#	.
=10	=10	=10	=10
1r	4e	16a	1r
.	.	16g#	.
.	.	16a	.
.	.	16f#	.
.	8r	16b	.
.	.	16a	.
.	8d	16b	.
.	.	16f#	.
.	4d	16g#	.
.	.	16f#	.
.	.	16g#	.
.	.	16e	.
.	16r	[4a	.
.	16c#	.	.
.	16f#	.	.
.	16c#	.	.
=11	=11	=11	=11
1r	8d	16a]	1r
.	.	16b	.
.	8B	16a	.
.	.	16b	.
.	16r	8.g#M	.
.	16B	.	.
.	16e	.	.
.	16B	16a	.
.	8c#	16a	.
.	.	16cc#	.
.	8r	16a	.
.	.	16e	.
.	16c#	4r	.
.	16e	.	.
.	16c#	.	.
.	16A	.	.
=12	=12	=12	=12
1r	8F#	16dd	1r
.	.	16ff#	.
.	8r	16dd	.
.	.	16a	.
.	16f#	4r	.
.	16a	.	.
.	16f#	.	.
.	16d	.	.
.	8B	16gn	.
.	.	16b	.
.	8r	16g	.
.	.	16d	.
.	16e	4r	.
.	16g	.	.
.	16e	.	.
.	16B	.	.
=13	=13	=13	=13
1r	8c#	16r	1r
.	.	16e	.
.	8A	16a	.
.	.	16e	.
.	16r	8f#	.
.	16A	.	.
.	16d	8f#	.
.	16A	.	.
.	16B	16g	.
.	16c#	16a	.
.	4d	16f#	.
.	.	16g	.
.	.	8.eT	.
.	8c#	.	.
.	.	16d	.
=14	=14	=14	=14
1r	8d	8d	16dd
.	.	.	16ee
.	8D	8r	16ff#
.	.	.	16ee
.	8r	4r	16dd
.	.	.	16ee
.	8E	.	16ff#
.	.	.	16ee
.	8F#	2r	16dd
.	.	.	16ee
.	8G	.	16ff#
.	.	.	16ee
.	8A	.	16dd
.	.	.	16ee
.	8AA	.	16ff#
.	.	.	16ee
=15	=15	=15	=15
1r	8D	8r	8dd
.	8r	16d	8r
.	.	16c#	.
.	4r	16d	4r
.	.	16c#	.
.	.	16d	.
.	.	16c#	.
.	4r	8d	4r
.	.	8D	.
.	8r	8r	16bb
.	.	.	16aa
.	8d	8f#	16bb
.	.	.	16ff#
=16	=16	=16	=16
1r	4d	4e	16gg
.	.	.	16ff#
.	.	.	16gg
.	.	.	16ee
.	8r	8r	16aa
.	.	.	16gg
.	8c#	8e	16aa
.	.	.	16ee
.	4c#	4d	16ff#
.	.	.	16ee
.	.	.	16ff#
.	.	.	16dd
.	8r	8r	16gg
.	.	.	16ff#
.	8B	8d	16gg
.	.	.	16dd
=17	=17	=17	=17
1r	4B	4c#	16ee
.	.	.	16dd
.	.	.	16ee
.	.	.	16cc#
.	8r	8r	16ff#
.	.	.	16ee
.	8A	8c#	16ff#
.	.	.	16cc#
.	4A	4B	16dd
.	.	.	16cc#
.	.	.	16dd
.	.	.	16b
.	8r	8r	16ee
.	.	.	16dd
.	8G	8B	16ee
.	.	.	16b
=18	=18	=18	=18
1r	4G	4A	16cc#
.	.	.	16b
.	.	.	16cc#
.	.	.	16a
.	4F#	16r	[4dd
.	.	16A	.
.	.	16d	.
.	.	16A	.
.	8G	8B	16dd]
.	.	.	16ee
.	8F#	8A	16dd
.	.	.	16ee
.	8E	4G	8.cc#M
.	8AA	.	.
.	.	.	16dd
=19	=19	=19	=19
1r	4D	4F#	16dd
.	.	.	16ff#
.	.	.	16dd
.	.	.	16a
.	4r	16f#	4r
.	.	16a	.
.	.	16f#	.
.	.	[16d	.
.	4r	4d]	16gg#
.	.	.	16bb
.	.	.	16gg#
.	.	.	16ee
.	8r	16r	[4aa
.	.	16ee	.
.	8c#	16cc#	.
.	.	16a	.
=20	=20	=20	=20
2r	16B	4dd	4aa]
.	16f#	.	.
.	16d	.	.
.	16B	.	.
.	16e	8r	8r
.	16B	.	.
.	16G#	8dd	8gg#
.	16E	.	.
16AA	4A	4cc#	4aa
16BB	.	.	.
16C#	.	.	.
16BB	.	.	.
16AA	4r	4r	4r
16BB	.	.	.
16C#	.	.	.
16BB	.	.	.
=21	=21	=21	=21
16AA	2r	2r	2r
16BB	.	.	.
16C#	.	.	.
16BB	.	.	.
16AA	.	.	.
16BB	.	.	.
16C#	.	.	.
16BB	.	.	.
8AA	8r	8r	8r
8r	16c#	8e	16a
.	16B	.	16g#
4r	16c#	8e	16a
.	16B	.	16g#
.	16c#	8e	16a
.	16B	.	16g#
=22	=22	=22	=22
4r	4c#	4e	8a
.	.	.	8A
16F#	8r	8r	8r
16E	.	.	.
16F#	8a	8cc#	8aa
16C#	.	.	.
16D	4f#	4b	4aa
16C#	.	.	.
16D	.	.	.
16BB	.	.	.
16E	8r	8r	8r
16D	.	.	.
16E	8g#	8b	8gg#
16BB	.	.	.
=23	=23	=23	=23
16C#	4e	4a	4gg#
16BB	.	.	.
16C#	.	.	.
16AA	.	.	.
16D	8r	8r	8r
16C#	.	.	.
16D	8f#	8a	8ff#
16AA	.	.	.
16BB	4d	4g#	4dd
16AA	.	.	.
16BB	.	.	.
16GG#	.	.	.
16C#	8r	8r	8r
16BB	.	.	.
16C#	8e	8g#	8ee
16GG#	.	.	.
=24	=24	=24	=24
16AA	4c#	4f#	4ee
16GG#	.	.	.
16AA	.	.	.
16FF#	.	.	.
16BB	8r	8r	8r
16AA	.	.	.
16BB	8d	8f#	8dd
16FF#	.	.	.
16GG	4B	4e	4dd
16FF#	.	.	.
16GG	.	.	.
16EE	.	.	.
[4AA	4A	16r	4cc#
.	.	16c#	.
.	.	16f#	.
.	.	16c#	.
=25	=25	=25	=25
16AA]	4F#	4d	4b
16BB	.	.	.
16AA	.	.	.
16BB	.	.	.
4GG#	4E	16r	[4b
.	.	16B	.
.	.	16e	.
.	.	16B	.
4AA	4E	4c#	16b]
.	.	.	16e
.	.	.	16g#
.	.	.	16e
16r	8r	8r	[4a
16AA	.	.	.
16C#	8c#	8e	.
16AA	.	.	.
=26	=26	=26	=26
8D	4B	8f#	16a]
.	.	.	16b
8BB	.	8d	16a
.	.	.	16b
8E	8B	4e	16g#
.	.	.	16a
8EE	8d	.	16f#
.	.	.	16g#
4AA	16c#	8e	16a
.	16d	.	16b
.	16e	8r	16cc#
.	16d	.	16b
8r	16c#	4r	16a
.	16d	.	16b
8BB	16e	.	16cc#
.	16d	.	16b
=27	=27	=27	=27
8C#	16c#	1r	16a
.	16d	.	16b
8D	16e	.	16cc#
.	16d	.	16b
8E	16c#	.	16a
.	16d	.	16b
8EE	16e	.	16cc#
.	16d	.	16b
4AA	4c#	.	16a
.	.	.	16cc#
.	.	.	16a
.	.	.	16e
4r	16c#	.	4r
.	16e	.	.
.	16c#	.	.
.	16A	.	.
=28	=28	=28	=28
1r	8F#	1r	16r
.	.	.	16a
.	8f#	.	16dd
.	.	.	16a
.	8g	.	16b
.	.	.	16dd
.	8e	.	16gg
.	.	.	16b
.	8a	.	16cc#
.	.	.	16ee
.	8f#	.	16aa
.	.	.	16cc#
.	8b	.	16dd
.	.	.	16ff#
.	8B	.	16bb
.	.	.	16dd
=29	=29	=29	=29
1r	8c#	1r	16ee
.	.	.	16aa
.	8A	.	16gg
.	.	.	16aa
.	8d	.	16ff#
.	.	.	16ee
.	8c#	.	16ff#
.	.	.	16dd
.	8B	.	16gg
.	.	.	16ff#
.	8G	.	16gg
.	.	.	16aa
.	8A	.	8.eeT
.	8AA	.	.
.	.	.	16dd
=30	=30	=30	=30
1r	8D	16d	4dd
.	.	16e	.
.	8r	16f#	.
.	.	16e	.
.	4r	16d	8r
.	.	16e	.
.	.	16f#	8ee
.	.	16e	.
.	2r	16d	8ff#
.	.	16e	.
.	.	16f#	8gg
.	.	16e	.
.	.	16d	8aa
.	.	16e	.
.	.	16f#	8a
.	.	16e	.
=31	=31	=31	=31
8r	8r	8d	8dd
16D	16F#	8r	8r
16C#	16E	.	.
16D	16F#	4r	4r
16C#	16E	.	.
16D	16F#	.	.
16C#	16E	.	.
8D	4F#	4r	4r
8DD	.	.	.
8r	4r	16b	8r
.	.	16a	.
8d	.	16b	8ff#
.	.	16f#	.
=32	=32	=32	=32
4d	1r	16g	4ee
.	.	16f#	.
.	.	16g	.
.	.	16e	.
8r	.	16a	8r
.	.	16g	.
8c#	.	16a	8ee
.	.	16e	.
4c#	.	16f#	4dd
.	.	16e	.
.	.	16f#	.
.	.	16d	.
8r	.	16g	8r
.	.	16f#	.
8B	.	16g	8dd
.	.	16d	.
=33	=33	=33	=33
4B	1r	16e	4cc#
.	.	16d	.
.	.	16e	.
.	.	16c#	.
8r	.	16f#	8r
.	.	16e	.
8A	.	16f#	8cc#
.	.	16c#	.
4A	.	16d	4b
.	.	16c#	.
.	.	16d	.
.	.	16B	.
8r	.	16e	8r
.	.	16d	.
8G	.	16e	8b
.	.	16B	.
=34	=34	=34	=34
4G	1r	16c#	4a
.	.	16B	.
.	.	16c#	.
.	.	16A	.
8F#	.	[4d	16r
.	.	.	16a
16B	.	.	16dd
16F#	.	.	16a
8G	.	16d]	8b
.	.	16e	.
8E	.	16d	8gg
.	.	16e	.
8A	.	8.c#	8.ff#
8AA	.	.	.
.	.	16d	16ee
=35	=35	=35	=35
4D	1r	8d	16dd
.	.	.	16ee
.	.	8e	16ff#
.	.	.	16ee
8r	.	8f#	16dd
.	.	.	16ff#
8B	.	8g#	16ee
.	.	.	16dd
4c#	.	16a	16cc#
.	.	16b	16dd
.	.	16cc#	16ee
.	.	16b	16dd
8r	.	16a	16cc#
.	.	16cc#	16ee
8D	.	16b	16dd
.	.	16a	16cc#
=36	=36	=36	=36
4E	1r	16g#	8b
.	.	16f#	.
.	.	16g#	8ee
.	.	16e	.
8BB	.	8f#	16dd
.	.	.	16cc#
8E	.	8g#	16dd
.	.	.	16b
8AA	.	8a	16cc#
.	.	.	16b
8D	.	8f#	16a
.	.	.	16b
8E	.	8B	8.g#
8EE	.	8d	.
.	.	.	16a
=37	=37	=37	=37
4AA	16A	16c#	8a
.	16B	16e	.
.	16c#	16a	8r
.	16B	16e	.
4r	16A	16c#	4r
.	16B	16e	.
.	16c#	16a	.
.	16B	16e	.
2r	16A	16c#	2r
.	16B	16e	.
.	16c#	16a	.
.	16B	16e	.
.	16A	16c#	.
.	16B	16e	.
.	16c#	16a	.
.	16B	16e	.
=38	=38	=38	=38
1r	8A	8c#	8r
.	16cc#	8r	16aa
.	16b	.	16gg#
.	16cc#	4r	16aa
.	16b	.	16gg#
.	16cc#	.	16aa
.	16b	.	16gg#
.	8c#	4r	8aa
.	8r	.	8a
.	16f#	8r	8r
.	16e	.	.
.	16f#	8a	8cc#
.	16c#	.	.
=39	=39	=39	=39
1r	16d	4a	4b
.	16c#	.	.
.	16d	.	.
.	16B	.	.
.	16e	8r	8r
.	16d	.	.
.	16e	8g#	8b
.	16B	.	.
.	16c#	4g#	4a
.	16B	.	.
.	16c#	.	.
.	16A	.	.
.	16d	8r	8r
.	16c#	.	.
.	16d	8f#	8a
.	16A	.	.
=40	=40	=40	=40
1r	16B	4f#	4g#
.	16A	.	.
.	16B	.	.
.	16G#	.	.
.	16c#	8r	8r
.	16B	.	.
.	16c#	8e	8g#
.	16G#	.	.
.	16A	4e	4f#
.	16G	.	.
.	16A	.	.
.	16F#	.	.
.	16B	8r	8r
.	16A	.	.
.	16B	8d	8f#
.	16F#	.	.
=41	=41	=41	=41
1r	16G#	4d	[4e
.	16F#	.	.
.	16G#	.	.
.	16E	.	.
.	[4A	4c#	16e]
.	.	.	16a
.	.	.	16e
.	.	.	16c#
.	16A]	2B	[4d
.	16B	.	.
.	16A	.	.
.	16B	.	.
.	8.G#	.	16d]
.	.	.	16e
.	.	.	16d
.	16A	.	16e
=42	=42	=42	=42
!! The voicing in this bar is not entirely clear in the original score.
1r	4A	4A	16c#
.	.	.	16e
.	.	.	16c#
.	.	.	16A
.	16E	4r	4r
.	16A	.	.
.	16E	.	.
.	16C#	.	.
.	4r	4r	16A
.	.	.	16c#
.	.	.	16A
.	.	.	16E
.	16C#	4r	4r
.	16E	.	.
.	16C#	.	.
.	16AA	.	.
=43	=43	=43	=43
1r	4FF#	4r	16r
.	.	.	16A
.	.	.	16d
.	.	.	16A
.	[4GG	16r	4B
.	.	16D	.
.	.	16G	.
.	.	16D	.
.	4GG]	4E	16r
.	.	.	16B
.	.	.	16e
.	.	.	16B
.	[4AA	16r	4c#
.	.	16E	.
.	.	16A	.
.	.	16E	.
=44	=44	=44	=44
1r	4AA]	4.F#	16r
.	.	.	16c#
.	.	.	16a
.	.	.	16c#
.	4BB	.	16d
.	.	.	16B
.	.	[8G	16b
.	.	.	16d
.	8C#	8G]	16e
.	.	.	16A
.	4D	8F#	16a
.	.	.	16b
.	.	8E	16a
.	.	.	16b
.	8C#	8A	16a
.	.	.	16g
=45	=45	=45	=45
1r	8D	4A	16f#
.	.	.	16a
.	8F#	.	16dd
.	.	.	16a
.	4G	8G	16b
.	.	.	16dd
.	.	[8e	16gg
.	.	.	16b
.	2A	16e]	8cc#
.	.	16g	.
.	.	16f#	[8dd
.	.	16a	.
.	.	16e	8.dd]
.	.	16f#	.
.	.	8g	.
.	.	.	16cc#
=46	=46	=46	=46
16D	4A	4f#	4dd
16E	.	.	.
16F#	.	.	.
16E	.	.	.
16D	4r	4r	4r
16E	.	.	.
16F#	.	.	.
16E	.	.	.
16D	2r	2r	2r
16E	.	.	.
16F#	.	.	.
16E	.	.	.
16D	.	.	.
16E	.	.	.
16F#	.	.	.
16E	.	.	.
=47	=47	=47	=47
4D	16d	2r	16ff#
.	16e	.	16a
.	16f#	.	16dd
.	16e	.	16a
4r	16d	.	16ff#
.	16e	.	16a
.	16f#	.	16dd
.	16e	.	16a
4r	16d	4r	16ff#
.	16e	.	16a
.	16f#	.	16dd
.	16e	.	16a
16B	8d	8r	8ff#
16A	.	.	.
16B	8d	8dd	8ff#
16F#	.	.	.
=48	=48	=48	=48
16G	4d	4b	4ee
16F#	.	.	.
16G	.	.	.
16E	.	.	.
16A	8r	8r	8r
16G	.	.	.
16A	8c#	8cc#	8ee
16E	.	.	.
16F#	4c#	4a	4dd
16E	.	.	.
16F#	.	.	.
16D	.	.	.
16G	8r	8r	8r
16F#	.	.	.
16G	8B	8b	8dd
16D	.	.	.
=49	=49	=49	=49
16E	4B	4g	4cc#
16D	.	.	.
16E	.	.	.
16C#	.	.	.
16F#	8r	8r	8r
16E	.	.	.
16F#	8A	8a	8cc#
16C#	.	.	.
16D	4A	4f#	4b
16C#	.	.	.
16D	.	.	.
16BB	.	.	.
16E	8r	8r	8r
16D	.	.	.
16E	8G	8g	8b
16BB	.	.	.
=50	=50	=50	=50
16C#	4G	4e	[4a
16BB	.	.	.
16C#	.	.	.
16AA	.	.	.
[4D	8F#	8d	16a]
.	.	.	8dd
.	8A	8f#	.
.	.	.	16dd
16D]	4B	4g	[4ee
16E	.	.	.
16D	.	.	.
16E	.	.	.
4C#	4A	8r	16ee]
.	.	.	8ee
.	.	8g	.
.	.	.	[16ee
=51	=51	=51	=51
4D	4A	8f#	16ee]
.	.	.	8ee
.	.	8f#	.
.	.	.	16ee
8r	8r	8f#	16r
.	.	.	8dd
8F#	8A	8f#	.
.	.	.	16dd
4G#	4B	8e	16r
.	.	.	8dd
.	.	8e	.
.	.	.	16dd
8r	8r	8e	16r
.	.	.	8cc#
8A#	8c#	8e	.
.	.	.	[16cc#
=52	=52	=52	=52
4B	4d	8d	16cc#]
.	.	.	8cc#
.	.	8d	.
.	.	.	16cc#
8r	8r	8d	16r
.	.	.	8b
8Gn	8B	8d	.
.	.	.	16b
4E	4G	8c#	16r
.	.	.	8b
.	.	8c#	.
.	.	.	16b
8r	8r	8c#	16r
.	.	.	8a#
8F#	8F#	8c#	.
.	.	.	16a#
=53	=53	=53	=53
16BB	4F#	4d	4b
16C#	.	.	.
16D	.	.	.
16C#	.	.	.
16BB	4r	4r	4r
16C#	.	.	.
16D	.	.	.
16C#	.	.	.
16BB	2r	2r	2r
16C#	.	.	.
16D	.	.	.
16C#	.	.	.
16BB	.	.	.
16C#	.	.	.
16D	.	.	.
16C#	.	.	.
=54	=54	=54	=54
4BB	16B	16d	1r
.	16c#	16f#	.
.	16d	16b	.
.	16c#	16f#	.
4r	16B	16d	.
.	16c#	16f#	.
.	16d	16b	.
.	16c#	16f#	.
2r	16B	16d	.
.	16c#	16f#	.
.	16d	16b	.
.	16c#	16f#	.
.	16B	16d	.
.	16c#	16f#	.
.	16d	16b	.
.	16c#	16f#	.
=55	=55	=55	=55
2r	4B	4d	8r
.	.	.	16bb
.	.	.	16aa#
.	8r	8r	16bb
.	.	.	16aa#
.	8c#	8e	16bb
.	.	.	16aa#
4r	4d	4f#	8bb
.	.	.	8b
16G	8r	8r	4r
16F#	.	.	.
16G	8d	8b	.
16D	.	.	.
=56	=56	=56	=56
16E	4c#	4b	1r
16D	.	.	.
16E	.	.	.
16C#	.	.	.
16F#	8r	8r	.
16E	.	.	.
16F#	8c#	8a	.
16C#	.	.	.
16D	4B	4a	.
16C#	.	.	.
16D	.	.	.
16BB	.	.	.
16E	8r	8r	.
16D	.	.	.
16E	8B	8g	.
16BB	.	.	.
=57	=57	=57	=57
16C#	4A	4g	1r
16BB	.	.	.
16C#	.	.	.
16AA	.	.	.
16D	8r	8r	.
16C#	.	.	.
16D	8A	8f#	.
16AA	.	.	.
16BB	4G#	4f#	.
16AA	.	.	.
16BB	.	.	.
16GG#	.	.	.
16C#	8r	8r	.
16BB	.	.	.
16C#	8G#	8e	.
16GG#	.	.	.
=58	=58	=58	=58
16AA#	4F#	4e	4r
16GG#	.	.	.
16AA#	.	.	.
16FF#	.	.	.
8BB	4r	8r	16ggn
.	.	.	16ff#
8BB	.	8d	16gg
.	.	.	16dd
4BB	2r	4c#	16ee
.	.	.	16dd
.	.	.	16ee
.	.	.	16cc#
8r	.	8r	16ff#
.	.	.	16ee
8AA#	.	8c#	16ff#
.	.	.	16cc#
=59	=59	=59	=59
4BB	4r	4B	16dd
.	.	.	16cc#
.	.	.	16dd
.	.	.	16b
4r	16g	8r	8dd
.	16f#	.	.
.	16g	8b	8dd
.	16d	.	.
2r	16e	4b	4cc#
.	16d	.	.
.	16e	.	.
.	16c#	.	.
.	16f#	8r	8r
.	16e	.	.
.	16f#	8a#	8cc#
.	16c#	.	.
=60	=60	=60	=60
1r	4d	4b	16b
.	.	.	16bb
.	.	.	16aa#
.	.	.	16bb
.	4r	16r	[4dd
.	.	16b	.
.	.	16a#	.
.	.	[16b	.
.	4e	4b_	16dd]
.	.	.	16bb
.	.	.	16aa
.	.	.	16bb
.	4r	16b]	[4dd
.	.	16b	.
.	.	16a#	.
.	.	[16b	.
=61	=61	=61	=61
1r	4f#	4b_	16dd]
.	.	.	16bb
.	.	.	16aa#
.	.	.	16bb
.	4r	16b]	[4dd
.	.	16b	.
.	.	16a#	.
.	.	[16b	.
.	4g	4b_	16dd]
.	.	.	16bb
.	.	.	16aa#
.	.	.	16bb
.	4r	16b]	[4dd
.	.	16b	.
.	.	16a	.
.	.	[16b	.
=62	=62	=62	=62
1r	[4g#	4b]	16dd]
.	.	.	16bb
.	.	.	16aa#
.	.	.	16bb
.	16g#]	4r	4ee#
.	16cc#	.	.
.	16b	.	.
.	16cc#	.	.
.	4an	2r	16r
.	.	.	16cc#
.	.	.	16ff#
.	.	.	16cc#
.	16r	.	4dd
.	16f#	.	.
.	16b	.	.
.	16g#	.	.
=63	=63	=63	=63
1r	4e#	1r	16r
.	.	.	16g#
.	.	.	16cc#
.	.	.	16g#
.	16r	.	4a
.	16c#	.	.
.	16f#	.	.
.	16d	.	.
.	4.B	.	16r
.	.	.	16dd
.	.	.	16ggn
.	.	.	16ff#
.	.	.	16ee#
.	.	.	16cc#
.	8A	.	16ff#
.	.	.	16cc#
=64	=64	=64	=64
1r	8B	2r	16dd
.	.	.	16ff#
.	8G#	.	16ee#
.	.	.	16ff#
.	8c#	.	16a
.	.	.	16ff#
.	8C#	.	16g#
.	.	.	16ee#
.	4F#	16f#	8ff#
.	.	16g#	.
.	.	16a	8r
.	.	16g#	.
.	8r	16f#	4r
.	.	16g#	.
.	8G#	16a	.
.	.	16g#	.
=65	=65	=65	=65
2r	8A	16f#	1r
.	.	16g#	.
.	8B	16a	.
.	.	16g#	.
.	8c#	16f#	.
.	.	16g#	.
.	8C#	16a	.
.	.	16g#	.
8r	4F#	4f#	.
16F#	.	.	.
16E#	.	.	.
16F#	4r	4r	.
16E#	.	.	.
16F#	.	.	.
16E#	.	.	.
=66	=66	=66	=66
8F#	4r	4r	1r
8FF#	.	.	.
8r	8r	16dd	.
.	.	16cc#	.
8F#	8A	16dd	.
.	.	16a	.
4F#	4G#	16b	.
.	.	16a	.
.	.	16b	.
.	.	16g#	.
8r	8r	16cc#	.
.	.	16b	.
8En	8G#	16cc#	.
.	.	16g#	.
=67	=67	=67	=67
4E	4F#	16a	1r
.	.	16g#	.
.	.	16a	.
.	.	16f#	.
8r	8r	16b	.
.	.	16a	.
8D	8F#	16b	.
.	.	16f#	.
4D	4E	16g#	.
.	.	16f#	.
.	.	16g#	.
.	.	16e	.
8r	8r	16a	.
.	.	16g#	.
8C#	8E	16a	.
.	.	16e	.
=68	=68	=68	=68
4C#	4D#	16f#	1r
.	.	16e	.
.	.	16f#	.
.	.	16d#	.
8r	8r	16g#	.
.	.	16f#	.
8BB	8D#	16g#	.
.	.	16d#	.
4BB	[4C#	16e#	.
.	.	16d#	.
.	.	16e#	.
.	.	16c#	.
4AA	16C#]	8f#	.
.	16F#	.	.
.	16E#	8cc#	.
.	16F#	.	.
=69	=69	=69	=69
4BB	16r	16ddn	2r
.	16G#	16e#	.
.	16A	16f#	.
.	16B	16g#	.
4C#	8.G#	8.e#M	.
.	16A	16f#	.
4FF#	8A	8f#	8r
.	8c#	16a	16ff#
.	.	16g#	16ee#
4r	8c#	16a	16ff#
.	.	16g#	16ee#
.	8c#	16a	16ff#
.	.	16g#	16ee#
=70	=70	=70	=70
8r	4c#	4a	4ff#
16F#	.	.	.
16E#	.	.	.
16F#	4r	4r	4r
16E#	.	.	.
16F#	.	.	.
16E#	.	.	.
4F#	8r	8r	8r
.	16A	16f#	8cc#
.	16G#	16e#	.
4r	16A	16f#	8cc#
.	16G#	16e#	.
.	16A	16f#	8cc#
.	16G#	16e#	.
=71	=71	=71	=71
8r	4A	4f#	4cc#
16FF#	.	.	.
16EE#	.	.	.
16FF#	4r	4r	4r
16EE#	.	.	.
16FF#	.	.	.
16EE#	.	.	.
4FF#	8r	2r	8r
.	16F#	.	16a
.	16E#	.	16g#
4r	16F#	.	16a
.	16E#	.	16g#
.	16F#	.	16a
.	16E#	.	16g#
=72	=72	=72	=72
4r	8F#	1r	4a
.	8FF#	.	.
16d	8r	.	8r
16c#	.	.	.
16d	8f#	.	8aa
16A	.	.	.
16B	4f#	.	4gg#
16A	.	.	.
16B	.	.	.
16G#	.	.	.
16c#	8r	.	8r
16B	.	.	.
16c#	8e	.	8gg
16G#	.	.	.
=73	=73	=73	=73
16A	4e	1r	4ff#
16G#	.	.	.
16A	.	.	.
16F#	.	.	.
16B	8r	.	8r
16A	.	.	.
16B	8d	.	8ff#
16F#	.	.	.
16G#	4d	.	4ee
16F#	.	.	.
16G#	.	.	.
16E	.	.	.
16A	8r	.	8r
16G#	.	.	.
16A	8c#	.	8ee
16E	.	.	.
=74	=74	=74	=74
16F#	4c#	1r	4dd#
16E	.	.	.
16F#	.	.	.
16D#	.	.	.
16G#	8r	.	8r
16F#	.	.	.
16G#	8B	.	8dd
16D#	.	.	.
16E#	4B	.	8gg#
16D#	.	.	.
16E#	.	.	[8cc#
16C#	.	.	.
[4F#	16A	.	16cc#]
.	16B	.	16ddn
.	16A	.	16cc#
.	16B	.	16dd
=75	=75	=75	=75
16F#]	4G#	1r	[4b
16G#	.	.	.
16F#	.	.	.
16G#	.	.	.
4E#	[4c#	.	16b]
.	.	.	16cc#
.	.	.	16b
.	.	.	16cc#
4F#	16c#]	.	[4a
.	16d	.	.
.	16c#	.	.
.	16d	.	.
4D#	[4B	.	16a]
.	.	.	16b
.	.	.	16a
.	.	.	16b
=76	=76	=76	=76
8E#	16B]	1r	16g#
.	16c#	.	16a
8F#	16A	.	16f#
.	16B	.	16g#
8BB	4G#	.	16f#
.	.	.	16g#
8C#	.	.	16f#
.	.	.	16e#
4FF#	4A	.	16f#
.	.	.	16a
.	.	.	16f#
.	.	.	16c#
4r	16A	.	4r
.	16c#	.	.
.	16A	.	.
.	16F#	.	.
=77	=77	=77	=77
2r	4r	1r	16ff#
.	.	.	16aa
.	.	.	16ff#
.	.	.	16cc#
.	16a	.	4r
.	16cc#	.	.
.	16a	.	.
.	16f#	.	.
16F#	2r	.	2r
16G#	.	.	.
16A	.	.	.
16G#	.	.	.
16F#	.	.	.
16G#	.	.	.
16A	.	.	.
16G#	.	.	.
=78	=78	=78	=78
16F#	2r	1r	2r
16G#	.	.	.
16A	.	.	.
16G#	.	.	.
16F#	.	.	.
16G#	.	.	.
16A	.	.	.
16G#	.	.	.
8F#	8r	.	8r
8r	16d#	.	16ff#
.	16c#	.	16ee
4r	16d#	.	16ff#
.	16c#	.	16ee
.	16d#	.	16ff#
.	16c#	.	16ee
=79	=79	=79	=79
8G#	8B#	8r	8dd#
8r	8r	16g#	8r
.	.	16f#	.
4r	4r	16g#	4r
.	.	16f#	.
.	.	16g#	.
.	.	16f#	.
8C#	16c#	8e	16ee
.	16d#	.	16ff#
8r	16e	8r	16gg#
.	16d#	.	16ff#
4r	16c#	4r	16ee
.	16d#	.	16ff#
.	16e	.	16gg#
.	16d#	.	16ff#
=80	=80	=80	=80
16C#	8c#	1r	8ee
16D#	.	.	.
16E	8r	.	8r
16D#	.	.	.
16C#	4r	.	4r
16D#	.	.	.
16E	.	.	.
16D#	.	.	.
16C#	2r	.	2r
16D#	.	.	.
16E	.	.	.
16D#	.	.	.
16C#	.	.	.
16D#	.	.	.
16E	.	.	.
16D#	.	.	.
=81	=81	=81	=81
8C#	8r	8r	8r
8r	16e	8g	16cc#
.	16d#	.	16b#
4r	16e	8g	16cc#
.	16d#	.	16b#
.	16e	8g	16cc#
.	16d#	.	16b#
4r	4e	4g	8cc#
.	.	.	8c#
16A	8r	8r	8r
16G#	.	.	.
16A	8c#	8e	8cc#
16E	.	.	.
=82	=82	=82	=82
16F#	4A	4d#	4cc#
16E	.	.	.
16F#	.	.	.
16D#	.	.	.
16G#	8r	8r	8r
16F#	.	.	.
16G#	8G#	8d#	8b#
16D#	.	.	.
8E	4G#	4c#	16cc#
.	.	.	16dd#
8C#	.	.	16ee
.	.	.	16cc#
8r	8r	8r	16aa
.	.	.	16gg#
8c#	8e	8cc#	16aa
.	.	.	16ee
=83	=83	=83	=83
4c#	4d#	4a	16ff#
.	.	.	16ee
.	.	.	16ff#
.	.	.	16dd#
8r	8r	8r	16gg#
.	.	.	16ff#
8B#	8d#	8g#	16gg#
.	.	.	16dd#
4c#	4c#	4g#	16ee
.	.	.	16dd#
.	.	.	16ee
.	.	.	16cc#
8r	8r	8r	16ff#
.	.	.	16ee
8F#	8f#	8a	16ddn
.	.	.	16cc#
=84	=84	=84	=84
8G#	8f#	4.g#	16b#
.	.	.	16dd#
8C#	8e	.	16cc#
.	.	.	16dd#
8G#	4d#	.	8.b#M
8GG#	.	8f#	.
.	.	.	16cc#
4C#	4c#	4e	16cc#
.	.	.	16ee
.	.	.	16cc#
.	.	.	16g#
4r	16e	4r	4r
.	16g#	.	.
.	16e	.	.
.	16c#	.	.
=85	=85	=85	=85
1r	4r	16e	1r
.	.	16g#	.
.	.	16e	.
.	.	16c#	.
.	16G#	4r	.
.	16c#	.	.
.	16G#	.	.
.	16E	.	.
.	4r	16c#	.
.	.	16e	.
.	.	16c#	.
.	.	16G#	.
.	16E	4r	.
.	16G#	.	.
.	16E	.	.
.	16C#	.	.
=86	=86	=86	=86
1r	4F#	16r	1r
.	.	16a#	.
.	.	16e	.
.	.	16a#	.
.	8G#	16d#	.
.	.	16b	.
.	8A#	16c#	.
.	.	16cc#	.
.	8B	16f#	.
.	.	16dd#	.
.	8e	16g#	.
.	.	16cc#	.
.	8f#	16a#	.
.	.	16cc#	.
.	8e	16a#	.
.	.	16f#	.
=87	=87	=87	=87
1r	16d#	8b	1r
.	16f#	.	.
.	16d#	8r	.
.	16B	.	.
.	8e	16g#	.
.	.	16b	.
.	8dn	16g#	.
.	.	16e	.
.	8c#	16a	.
.	.	16e	.
.	8G#	16b	.
.	.	16e	.
.	8A	16cc#	.
.	.	16g#	.
.	8F#	16f#	.
.	.	16e	.
=88	=88	=88	=88
1r	8.B	16d#	1r
.	.	16c#	.
.	.	8B	.
.	16A	.	.
.	8G#	16r	.
.	.	16B	.
.	8E	16e	.
.	.	16B	.
.	8A	16c#	.
.	.	16e	.
.	8F#	16a	.
.	.	16c#	.
.	8B	16d#	.
.	.	16f#	.
.	8G#	16b	.
.	.	16d#	.
=89	=89	=89	=89
1r	8c#	16e	1r
.	.	16g#	.
.	8C#	16cc#	.
.	.	16e	.
.	8D#	16f#	.
.	.	16b	.
.	8BB	16a	.
.	.	16b	.
.	8E	16g#	.
.	.	16b	.
.	8C#	16ee	.
.	.	16g#	.
.	8AA	8.f#T	.
.	8BB	.	.
.	.	16e	.
=90	=90	=90	=90
1r	16E	8e	1r
.	16F#	.	.
.	16G#	8r	.
.	16F#	.	.
.	16E	16G#	.
.	16F#	16B	.
.	16G#	16e	.
.	16F#	16B	.
.	16E	16G#	.
.	16F#	16B	.
.	16G#	16e	.
.	16F#	16B	.
.	16E	16G#	.
.	16F#	16B	.
.	16G#	16e	.
.	16F#	16B	.
=91	=91	=91	=91
1r	8E	8G#	16ee
.	.	.	16ff#
.	8r	8r	16gg#
.	.	.	16ff#
.	8r	4r	16ee
.	.	.	16ff#
.	8F#	.	16gg#
.	.	.	16ff#
.	8G#	2r	16ee
.	.	.	16ff#
.	8A	.	16gg#
.	.	.	16ff#
.	8B	.	16ee
.	.	.	16ff#
.	8BB	.	16gg#
.	.	.	16ff#
=92	=92	=92	=92
8r	8E	8r	8ee
16E	8r	16g#	8r
16D#	.	16f#	.
16E	4r	16g#	4r
16D#	.	16f#	.
16E	.	16g#	.
16D#	.	16f#	.
8E	4r	4g#	4r
8EE	.	.	.
8r	8r	8r	16cc#
.	.	.	16b
8E	8e	8g#	16cc#
.	.	.	16g#
=93	=93	=93	=93
4E	4c#	4f#	16a
.	.	.	16g#
.	.	.	16a
.	.	.	16f#
8r	8r	8r	16b
.	.	.	16a
8D#	8B	8f#	16b
.	.	.	16f#
4E	4B	4e	16g#
.	.	.	16f#
.	.	.	16g#
.	.	.	16e
4r	16c#	8r	8ee
.	16B	.	.
.	16c#	8g#	8ee
.	16G#	.	.
=94	=94	=94	=94
1r	16A	4f#	4ee
.	16G#	.	.
.	16A	.	.
.	16F#	.	.
.	16B	8r	8r
.	16A	.	.
.	16B	8f#	8dd#
.	16F#	.	.
.	16G#	4e	4ee
.	16F#	.	.
.	16G#	.	.
.	16E	.	.
.	16A	8r	8r
.	16G#	.	.
.	16A	8f#	8ee
.	16F#	.	.
=95	=95	=95	=95
1r	16B	4f#	4ddn
.	16A	.	.
.	16B	.	.
.	16F#	.	.
.	16G#	8r	8r
.	16F#	.	.
.	16G#	8e	8dd
.	16E	.	.
.	16A	4e	[4cc#
.	16G#	.	.
.	16A	.	.
.	16E	.	.
.	4F#	[4d	16cc#]
.	.	.	16b
.	.	.	16cc#
.	.	.	16a
=96	=96	=96	=96
2r	8G#	8d]	16b
.	.	.	16ee
.	8A	8c#	16aa
.	.	.	16a
.	4E	8B	8.aM
.	.	8d	.
.	.	.	16g#
4AA	4A	16c#	16a
.	.	16d	16b
.	.	16e	16cc#
.	.	16d	16b
8r	4r	16c#	16a
.	.	16d	16b
8BB	.	16e	16cc#
.	.	16d	16b
=97	=97	=97	=97
8C#	2r	16c#	16a
.	.	16d	16b
8D	.	16e	16cc#
.	.	16d	16b
8E	.	16c#	16a
.	.	16d	16b
8EE	.	16e	16cc#
.	.	16d	16b
4AA	8r	4c#	4a
.	16A	.	.
.	16G#	.	.
4r	16A	4r	4r
.	16G#	.	.
.	16A	.	.
.	16G#	.	.
=98	=98	=98	=98
1r	8A	4r	4r
.	8AA	.	.
.	8r	8r	16ff#
.	.	.	16ee
.	8a	8cc#	16ff#
.	.	.	16cc#
.	4a	4b	16dd
.	.	.	16cc#
.	.	.	16dd
.	.	.	16b
.	8r	8r	16ee
.	.	.	16dd
.	8g#	8b	16ee
.	.	.	16b
=99	=99	=99	=99
1r	4g#	4a	16cc#
.	.	.	16b
.	.	.	16cc#
.	.	.	16a
.	8r	8r	16dd
.	.	.	16cc#
.	8f#	8a	16dd
.	.	.	16a
.	4f#	4g#	16b
.	.	.	16a
.	.	.	16b
.	.	.	16g#
.	8r	8r	16cc#
.	.	.	16b
.	8e	8g#	16cc#
.	.	.	16g#
=100	=100	=100	=100
1r	4e	4f#	16a
.	.	.	16g#
.	.	.	16a
.	.	.	16f#
.	8r	8r	16b
.	.	.	16a
.	8d	8f#	16b
.	.	.	16f#
.	4d	[4e	16g#
.	.	.	16f#
.	.	.	16g#
.	.	.	16e
.	16c#	8e]	[4a
.	16B	.	.
.	16c#	8e	.
.	16A	.	.
=101	=101	=101	=101
1r	[4d	[4f#	16a]
.	.	.	16g#
.	.	.	16a
.	.	.	16f#
.	16d]	8f#]	[4b
.	16c#	.	.
.	16d	8f#	.
.	16B	.	.
.	[4e	[4g#	16b]
.	.	.	16a
.	.	.	16b
.	.	.	16g#
.	16e]	8g#]	[4cc#
.	16d	.	.
.	16e	8g#	.
.	16c#	.	.
=102	=102	=102	=102
1r	[4f#	[4a	16cc#]
.	.	.	16b
.	.	.	16cc#
.	.	.	16a
.	16f#]	8a]	16dd
.	16e	.	16cc#
.	16f#	8a	16dd
.	16e	.	16cc#
.	16f#	[4a	16dd
.	16e	.	16cc#
.	16d	.	16b
.	16f#	.	16dd
.	8e	8a]	8cc#
.	8E	8g#	16b
.	.	.	16a
=103	=103	=103	=103
16A	8c#	8a	8a
16B	.	.	.
16c#	8r	8r	8r
16B	.	.	.
16A	4r	4r	4r
16B	.	.	.
16c#	.	.	.
16B	.	.	.
16A	2r	2r	2r
16B	.	.	.
16c#	.	.	.
16B	.	.	.
16A	.	.	.
16B	.	.	.
16c#	.	.	.
16B	.	.	.
=104	=104	=104	=104
4A	16c#	8a	16ee
.	16d	.	16ff#
.	16e	8r	16ggn
.	16d	.	16ff#
4r	16c#	8a	16ee
.	16d	.	16ff#
.	16e	8r	16gg
.	16d	.	16ff#
2r	16c#	8a	16ee
.	16d	.	16ff#
.	16e	8r	16gg
.	16d	.	16ff#
.	16c#	8a	16ee
.	16d	.	16ff#
.	16e	8r	16gg
.	16d	.	16ff#
=105	=105	=105	=105
16AA	4c#	4a	4ee
16BB	.	.	.
16C#	.	.	.
16BB	.	.	.
16AA	4r	4r	4r
16BB	.	.	.
16C#	.	.	.
16BB	.	.	.
16AA	2r	2r	2r
16BB	.	.	.
16C#	.	.	.
16BB	.	.	.
16AA	.	.	.
16BB	.	.	.
16C#	.	.	.
16BB	.	.	.
=106	=106	=106	=106
4AA	16e	8a	16cc#
.	16f#	.	16dd
.	16g	8r	16ee
.	16f#	.	16dd
4r	16e	8a	16cc#
.	16f#	.	16dd
.	16g	8r	16ee
.	16f#	.	16dd
2r	16e	8a	16cc#
.	16f#	.	16dd
.	16g	8r	16ee
.	16f#	.	16dd
.	16e	8a	16cc#
.	16f#	.	16dd
.	16g	8r	16ee
.	16f#	.	16dd
=107	=107	=107	=107
8r	16e	8a	16cc#
.	16d	.	16b
8A	16e	8r	16cc#
.	16c#	.	16a
4F#	16f#	4r	16dd
.	16g	.	16ee
.	16a	.	16ff#
.	16g	.	16ee
8r	16f#	2r	16dd
.	16e	.	16cc#
8B	16f#	.	16dd
.	16d	.	16b
4G	16g	.	16ee
.	16a	.	16ff#
.	16b	.	16gg
.	16a	.	16ff#
=108	=108	=108	=108
8r	16g	1r	16ee
.	16f#	.	16dd
8A	16g	.	16ee
.	16e	.	16cc#
4F#	16f#	.	16dd
.	16g	.	16ee
.	16a	.	16ff#
.	16g	.	16ee
8r	16f#	.	16dd
.	16e	.	16cc#
8B	16f#	.	16dd
.	16d	.	16b
4G	16g	.	16ee
.	16a	.	16ff#
.	16b	.	16gg
.	16a	.	16ff#
=109	=109	=109	=109
8r	16g	1r	16ee
.	16f#	.	16dd
8A	16g	.	16ee
.	16e	.	16cc#
4F#	16d	.	16ff#
.	16e	.	16gg
.	16f#	.	16aa
.	16e	.	16gg
8r	16d	.	16ff#
.	16c#	.	16ee
8B	16d	.	16ff#
.	16B	.	16dd
4G	16e	.	16gg
.	16f#	.	16aa
.	16g	.	16bb
.	16f#	.	16aa
=110	=110	=110	=110
8r	16e	1r	16gg
.	16d	.	16ff#
8A	16e	.	16gg
.	16c#	.	16ee
4F#	16d	.	16ff#
.	16e	.	16gg
.	16f#	.	16aa
.	16e	.	16gg
8r	16d	.	16ff#
.	16c#	.	16ee
8B	16d	.	16ff#
.	16B	.	16dd
4G	16e	.	16gg
.	16f#	.	16aa
.	16g	.	16bb
.	16f#	.	16aa
=111	=111	=111	=111
8r	16e	2r	16gg
.	16d	.	16ff#
8A	16e	.	16gg
.	16c#	.	16ee
4D	16d	.	16ff#
.	16e	.	16ee
.	16f#	.	16dd
.	16g	.	16ee
16r	4e	4a	4cc#
16G#	.	.	.
16A	.	.	.
16G#	.	.	.
4A	16r	8a	16r
.	16e	.	16cc#
.	16f#	8a	16dd
.	16e	.	16cc#
=112	=112	=112	=112
16r	4f#	4a	4dd
16G#	.	.	.
16A	.	.	.
16G#	.	.	.
4A	16r	8a	16r
.	16f#	.	16dd
.	16g	8a	16ee
.	16f#	.	16dd
16r	4g	4a	4ee
16G#	.	.	.
16A	.	.	.
16G#	.	.	.
4A	16r	8a	16r
.	16e	.	16cc#
.	16f#	8a	16dd
.	16e	.	16cc#
=113	=113	=113	=113
16r	4f#	4a	4dd
16G#	.	.	.
16A	.	.	.
16G#	.	.	.
4A	16r	8a	16r
.	16f#	.	16dd
.	16g	8a	16ee
.	16f#	.	16dd
16r	4g	4a	4ee
16G#	.	.	.
16A	.	.	.
16G#	.	.	.
4A	16r	8a	16r
.	16e	.	16cc#
.	16f#	8a	16dd
.	16e	.	16cc#
=114	=114	=114	=114
16r	4f#	4a	4dd
16G#	.	.	.
16A	.	.	.
16G#	.	.	.
4A	16r	8g#	16r
.	16d	.	16b
.	16e	8g#	16cc#
.	16d	.	16b
8r	16e	8a	16cc#
.	16f#	.	16dd
8A	16gn	8r	16ee
.	16f#	.	16dd
4AA	16e	4r	16cc#
.	16f#	.	16dd
.	16g	.	16ee
.	16f#	.	16dd
=115	=115	=115	=115
8r	16e	1r	16cc#
.	16f#	.	16dd
8Gn	16g	.	16ee
.	16f#	.	16dd
4GG	16e	.	16cc#
.	16f#	.	16dd
.	16g	.	16ee
.	16f#	.	16dd
8r	16e	.	16cc#
.	16f#	.	16dd
8F#	16g	.	16ee
.	16f#	.	16dd
4FF#	16e	.	16cc#
.	16f#	.	16dd
.	16g	.	16ee
.	16f#	.	16dd
=116	=116	=116	=116
8r	16e	1r	16cc#
.	16f#	.	16dd
8E	16g	.	16ee
.	16f#	.	16dd
4EE	16e	.	16cc#
.	16f#	.	16dd
.	16g	.	16ee
.	16e	.	16cc#
8r	16f#	.	16dd
.	16g	.	16ee
8D	16a	.	16ff#
.	16g	.	16ee
4DD	16f#	.	16dd
.	16g	.	16ee
.	16a	.	16ff#
.	16g	.	16ee
=117	=117	=117	=117
1r	4f#	1r	16dd
.	.	.	16ff#
.	.	.	16dd
.	.	.	16a
.	16f#	.	4r
.	16a	.	.
.	16f#	.	.
.	16d	.	.
.	4r	.	16a
.	.	.	16dd
.	.	.	16a
.	.	.	16f#
.	16d	.	4r
.	16f#	.	.
.	16d	.	.
.	16A	.	.
=118	=118	=118	=118
1r	4r	1r	16f#
.	.	.	16a
.	.	.	16f#
.	.	.	16d
.	16A	.	4r
.	16d	.	.
.	16A	.	.
.	16F#	.	.
.	4r	.	16d
.	.	.	16f#
.	.	.	16d
.	.	.	16A
.	16F#	.	4r
.	16A	.	.
.	16F#	.	.
.	16D	.	.
=119	=119	=119	=119
16D	1r	1r	1r
16E	.	.	.
16F#	.	.	.
16E	.	.	.
16D	.	.	.
16E	.	.	.
16F#	.	.	.
16E	.	.	.
16D	.	.	.
16E	.	.	.
16F#	.	.	.
16E	.	.	.
16D	.	.	.
16E	.	.	.
16F#	.	.	.
16E	.	.	.
=120	=120	=120	=120
8D	8r	8r	8r
8r	8d 8aa	16f#	16dd
.	.	16e	16cc#
4r	8d 8aa	16f#	16dd
.	.	16e	16cc#
.	8d 8aa	16f#	16dd
.	.	16e	16cc#
4r	8d 8aa	8f#	8dd
.	8D	8r	8r
16B	8r	8r	8r
16A	.	.	.
16B	8B 8d	8f# 8b	8dd 8ff#
16F#	.	.	.
=121	=121	=121	=121
16G	4B 4e	4g 4b	4dd 4ee
16F#	.	.	.
16G	.	.	.
16E	.	.	.
16A	8r	8r	8r
16G	.	.	.
16A	8A 8c#	8e 8a	8cc# 8ee
16E	.	.	.
16F#	4A 4d	4a	4cc# 4dd
16E	.	.	.
16F#	.	.	.
16D	.	.	.
16G	8r	8r	8r
16F#	.	.	.
16G	8G 8B	8d 8g	8b 8dd
16D	.	.	.
=122	=122	=122	=122
16E	4G 4c#	4e 4g	4b 4cc#
16D	.	.	.
16E	.	.	.
16C#	.	.	.
16F#	8r	8r	8r
16E	.	.	.
16F#	8F# 8A	8c# 8f#	8a 8cc#
16C#	.	.	.
16D	4F# 4B	4d 4f#	4a 4b
16C#	.	.	.
16D	.	.	.
16BB	.	.	.
16E	8r	8r	8r
16D	.	.	.
16E	8E 8G	8B 8e	8g 8b
16BB	.	.	.
=123	=123	=123	=123
16C#	4E 4A	4c# 4e	[4g 4a
16BB	.	.	.
16C#	.	.	.
16AA	.	.	.
[4D	4F# 4A	4d 4f#	16a]
.	.	.	16b
.	.	.	16a
.	.	.	16b
16D]	4E 4G	4B 4e	[4g
16E	.	.	.
16D	.	.	.
16E	.	.	.
4C#	4E 4A	4e	16g]
.	.	.	16a
.	.	.	16g
.	.	.	16a
=124	=124	=124	=124
4D	16r	4A 4d	4f#
.	16F#	.	.
.	16G	.	.
.	16A	.	.
8r	16B	8r	8r
.	16A	.	.
8D	16B	8d	8f#
.	16F#	.	.
4D	16G	4B	4e
.	16F#	.	.
.	16G	.	.
.	16E	.	.
8r	16A	8r	8r
.	16G	.	.
8C#	16A	8c#	8e
.	16E	.	.
=125	=125	=125	=125
4C#	16F#	4A	4d
.	16E	.	.
.	16F#	.	.
.	16D	.	.
8r	16G	8r	8r
.	16F#	.	.
8BB	16G	8B	8d
.	16D	.	.
4BB	16E	4G	4c#
.	16D	.	.
.	16E	.	.
.	16C#	.	.
8r	16F#	8r	8r
.	16E	.	.
8AA	16F#	8A	8c#
.	16C#	.	.
=126	=126	=126	=126
4AA	16D	4F#	4B
.	16C#	.	.
.	16D	.	.
.	16BB	.	.
8r	16E	8r	8r
.	16D	.	.
8GG	16E	8G	8B
.	16BB	.	.
4GG	16C#	4E	[4A
.	16BB	.	.
.	16C#	.	.
.	16AA	.	.
4FF#	4D	4D	16A]
.	.	.	16A
.	.	.	16d
.	.	.	16A
=127	=127	=127	=127
2r	1r	1r	16f#
.	.	.	16d
.	.	.	16a
.	.	.	16f#
.	.	.	16dd
.	.	.	16a
.	.	.	16ff#
.	.	.	16dd
16r	.	.	4aa
16DD	.	.	.
16FF#	.	.	.
16DD	.	.	.
16AA	.	.	4r
16FF#	.	.	.
16D	.	.	.
16AA	.	.	.
=128	=128	=128	=128
4F#	4r	1r	16r
.	.	.	16aa
.	.	.	16ff#
.	.	.	16dd
4r	16a	.	4r
.	16dd	.	.
.	16a	.	.
.	16f#	.	.
2r	16d	.	16r
.	16r	.	16dd
.	8r	.	16a
.	.	.	16f#
.	16d	.	4r
.	16a	.	.
.	16f#	.	.
.	16d	.	.
=129	=129	=129	=129
16r	8A	1r	2r
16AA	.	.	.
16D	8r	.	.
16AA	.	.	.
16F#	4r	.	.
16D	.	.	.
16A	.	.	.
16F#	.	.	.
8d	4r	.	16r
.	.	.	16d
8r	.	.	16A
.	.	.	16F#
4r	16D	.	4r
.	16A	.	.
.	16F#	.	.
.	16D	.	.
=130	=130	=130	=130
16r	8AA	2r	1r
16d	.	.	.
16A	8r	.	.
16d	.	.	.
16F#	4r	.	.
16A	.	.	.
16D	.	.	.
16F#	.	.	.
8AA	4r	16r	.
.	.	16A	.
8r	.	16F#	.
.	.	16D	.
4r	16AA	4r	.
.	16D	.	.
.	16AA	.	.
.	16FF#	.	.
=131	=131	=131	=131
16r	8DD	1r	1r
16A	.	.	.
16F#	8r	.	.
16A	.	.	.
16D	4r	.	.
16F#	.	.	.
16AA	.	.	.
16D	.	.	.
16FF#	2r	.	.
16F#	.	.	.
16D	.	.	.
16F#	.	.	.
16AA	.	.	.
16D	.	.	.
16FF#	.	.	.
16AA	.	.	.
=132	=132	=132	=132
16DD	1r	1r	1r
16EE	.	.	.
16FF#	.	.	.
16EE	.	.	.
16DD	.	.	.
16FF#	.	.	.
16EE	.	.	.
16GG	.	.	.
16FF#	.	.	.
16GG	.	.	.
16AA	.	.	.
16GG	.	.	.
16FF#	.	.	.
16AA	.	.	.
16GG	.	.	.
16BB	.	.	.
=133	=133	=133	=133
16AA	1r	1r	1r
16BB	.	.	.
16C#	.	.	.
16BB	.	.	.
16AA	.	.	.
16C#	.	.	.
16BB	.	.	.
16D	.	.	.
16C#	.	.	.
16D	.	.	.
16E	.	.	.
16D	.	.	.
16C#	.	.	.
16E	.	.	.
16D	.	.	.
16F#	.	.	.
=134	=134	=134	=134
16E	1r	1r	1r
16F#	.	.	.
16G	.	.	.
16F#	.	.	.
16E	.	.	.
16G	.	.	.
16F#	.	.	.
16A	.	.	.
16G	.	.	.
16A	.	.	.
16B	.	.	.
16A	.	.	.
16G	.	.	.
16B	.	.	.
16A	.	.	.
16G	.	.	.
=135	=135	=135	=135
16d	2r	1r	2r
16c#	.	.	.
16d	.	.	.
16c#	.	.	.
16d	.	.	.
16c#	.	.	.
16d	.	.	.
16c#	.	.	.
8d	16f#	.	16dd
.	16g	.	16ee
8r	16a	.	16ff#
.	16g	.	16ee
4r	16f#	.	16dd
.	16g	.	16ee
.	16a	.	16ff#
.	16g	.	16ee
=136	=136	=136	=136
16D	8f#	2r	8dd
16E	.	.	.
16F#	8r	.	8r
16E	.	.	.
16D	4r	.	4r
16E	.	.	.
16F#	.	.	.
16E	.	.	.
8D	16f#	8a	16dd
.	16e	.	16cc#
8r	16f#	8a	16dd
.	16e	.	16cc#
4r	16f#	8a	16dd
.	16e	.	16cc#
.	16f#	8a	16dd
.	16e	.	16cc#
=137	=137	=137	=137
8r	8f#	8a	8dd
8d	8r	8r	8r
4D	16f#	4r	16dd
.	16g	.	16ee
.	16a	.	16ff#
.	16g	.	16ee
8r	8f#	8a	8dd
8D	8r	8r	8r
4DD	4r	4r	4r
==	==	==	==
*-	*-	*-	*-
